assets/images/logo.svg

<svg width="175" height="30" viewBox="0 0 175 19" fill="none" xmlns="http://www.w3.org/2000/svg">
<path d="M10.688 9.36C11.664 9.568 12.448 10.056 13.04 10.824C13.632 11.576 13.928 12.44 13.928 13.416C13.928 14.824 13.432 15.944 12.44 16.776C11.464 17.592 10.096 18 8.336 18H0.488V1.152H8.072C9.784 1.152 11.12 1.544 12.08 2.328C13.056 3.112 13.544 4.176 13.544 5.52C13.544 6.512 13.28 7.336 12.752 7.992C12.24 8.648 11.552 9.104 10.688 9.36ZM4.592 7.968H7.28C7.952 7.968 8.464 7.824 8.816 7.536C9.184 7.232 9.368 6.792 9.368 6.216C9.368 5.64 9.184 5.2 8.816 4.896C8.464 4.592 7.952 4.44 7.28 4.44H4.592V7.968ZM7.616 14.688C8.304 14.688 8.832 14.536 9.2 14.232C9.584 13.912 9.776 13.456 9.776 12.864C9.776 12.272 9.576 11.808 9.176 11.472C8.792 11.136 8.256 10.968 7.568 10.968H4.592V14.688H7.616ZM20.2923 11.28C20.2923 9.904 20.5483 8.696 21.0603 7.656C21.5883 6.616 22.3003 5.816 23.1963 5.256C24.0923 4.696 25.0923 4.416 26.1963 4.416C27.1403 4.416 27.9643 4.608 28.6683 4.992C29.3883 5.376 29.9403 5.88 30.3243 6.504V4.608H34.4283V18H30.3243V16.104C29.9243 16.728 29.3643 17.232 28.6443 17.616C27.9403 18 27.1163 18.192 26.1723 18.192C25.0843 18.192 24.0923 17.912 23.1963 17.352C22.3003 16.776 21.5883 15.968 21.0603 14.928C20.5483 13.872 20.2923 12.656 20.2923 11.28ZM30.3243 11.304C30.3243 10.28 30.0363 9.472 29.4603 8.88C28.9003 8.288 28.2123 7.992 27.3963 7.992C26.5803 7.992 25.8843 8.288 25.3083 8.88C24.7483 9.456 24.4683 10.256 24.4683 11.28C24.4683 12.304 24.7483 13.12 25.3083 13.728C25.8843 14.32 26.5803 14.616 27.3963 14.616C28.2123 14.616 28.9003 14.32 29.4603 13.728C30.0363 13.136 30.3243 12.328 30.3243 11.304ZM41.3814 11.304C41.3814 9.912 41.6614 8.696 42.2214 7.656C42.7974 6.616 43.5894 5.816 44.5974 5.256C45.6214 4.696 46.7894 4.416 48.1014 4.416C49.7814 4.416 51.1814 4.856 52.3014 5.736C53.4374 6.616 54.1814 7.856 54.5334 9.456H50.1654C49.7974 8.432 49.0854 7.92 48.0294 7.92C47.2774 7.92 46.6774 8.216 46.2294 8.808C45.7814 9.384 45.5574 10.216 45.5574 11.304C45.5574 12.392 45.7814 13.232 46.2294 13.824C46.6774 14.4 47.2774 14.688 48.0294 14.688C49.0854 14.688 49.7974 14.176 50.1654 13.152H54.5334C54.1814 14.72 53.4374 15.952 52.3014 16.848C51.1654 17.744 49.7654 18.192 48.1014 18.192C46.7894 18.192 45.6214 17.912 44.5974 17.352C43.5894 16.792 42.7974 15.992 42.2214 14.952C41.6614 13.912 41.3814 12.696 41.3814 11.304ZM69.7126 18L65.6326 12.384V18H61.5286V0.24H65.6326V10.056L69.6886 4.608H74.7526L69.1846 11.328L74.8006 18H69.7126Z" fill="#222222"/>
<path d="M89.7566 18L86.2526 11.64H85.2686V18H81.1646V1.152H88.0526C89.3806 1.152 90.5086 1.384 91.4366 1.848C92.3806 2.312 93.0846 2.952 93.5486 3.768C94.0126 4.568 94.2446 5.464 94.2446 6.456C94.2446 7.576 93.9246 8.576 93.2846 9.456C92.6606 10.336 91.7326 10.96 90.5006 11.328L94.3886 18H89.7566ZM85.2686 8.736H87.8126C88.5646 8.736 89.1246 8.552 89.4926 8.184C89.8766 7.816 90.0686 7.296 90.0686 6.624C90.0686 5.984 89.8766 5.48 89.4926 5.112C89.1246 4.744 88.5646 4.56 87.8126 4.56H85.2686V8.736ZM107.717 18.192C106.405 18.192 105.221 17.912 104.165 17.352C103.125 16.792 102.301 15.992 101.693 14.952C101.101 13.912 100.805 12.696 100.805 11.304C100.805 9.928 101.109 8.72 101.717 7.68C102.325 6.624 103.157 5.816 104.213 5.256C105.269 4.696 106.453 4.416 107.765 4.416C109.077 4.416 110.261 4.696 111.317 5.256C112.373 5.816 113.205 6.624 113.813 7.68C114.421 8.72 114.725 9.928 114.725 11.304C114.725 12.68 114.413 13.896 113.789 14.952C113.181 15.992 112.341 16.792 111.269 17.352C110.213 17.912 109.029 18.192 107.717 18.192ZM107.717 14.64C108.501 14.64 109.165 14.352 109.709 13.776C110.269 13.2 110.549 12.376 110.549 11.304C110.549 10.232 110.277 9.408 109.733 8.832C109.205 8.256 108.549 7.968 107.765 7.968C106.965 7.968 106.301 8.256 105.773 8.832C105.245 9.392 104.981 10.216 104.981 11.304C104.981 12.376 105.237 13.2 105.749 13.776C106.277 14.352 106.933 14.64 107.717 14.64ZM120.886 11.28C120.886 9.904 121.142 8.696 121.654 7.656C122.182 6.616 122.894 5.816 123.79 5.256C124.686 4.696 125.686 4.416 126.79 4.416C127.734 4.416 128.558 4.608 129.262 4.992C129.982 5.376 130.534 5.88 130.918 6.504V4.608H135.022V18H130.918V16.104C130.518 16.728 129.958 17.232 129.238 17.616C128.534 18 127.71 18.192 126.766 18.192C125.678 18.192 124.686 17.912 123.79 17.352C122.894 16.776 122.182 15.968 121.654 14.928C121.142 13.872 120.886 12.656 120.886 11.28ZM130.918 11.304C130.918 10.28 130.63 9.472 130.054 8.88C129.494 8.288 128.806 7.992 127.99 7.992C127.174 7.992 126.478 8.288 125.902 8.88C125.342 9.456 125.062 10.256 125.062 11.28C125.062 12.304 125.342 13.12 125.902 13.728C126.478 14.32 127.174 14.616 127.99 14.616C128.806 14.616 129.494 14.32 130.054 13.728C130.63 13.136 130.918 12.328 130.918 11.304ZM141.975 11.28C141.975 9.904 142.231 8.696 142.743 7.656C143.271 6.616 143.983 5.816 144.879 5.256C145.775 4.696 146.775 4.416 147.879 4.416C148.759 4.416 149.559 4.6 150.279 4.968C151.015 5.336 151.591 5.832 152.007 6.456V0.24H156.111V18H152.007V16.08C151.623 16.72 151.071 17.232 150.351 17.616C149.647 18 148.823 18.192 147.879 18.192C146.775 18.192 145.775 17.912 144.879 17.352C143.983 16.776 143.271 15.968 142.743 14.928C142.231 13.872 141.975 12.656 141.975 11.28ZM152.007 11.304C152.007 10.28 151.719 9.472 151.143 8.88C150.583 8.288 149.895 7.992 149.079 7.992C148.263 7.992 147.567 8.288 146.991 8.88C146.431 9.456 146.151 10.256 146.151 11.28C146.151 12.304 146.431 13.12 146.991 13.728C147.567 14.32 148.263 14.616 149.079 14.616C149.895 14.616 150.583 14.32 151.143 13.728C151.719 13.136 152.007 12.328 152.007 11.304ZM169.328 18.192C168.16 18.192 167.12 17.992 166.208 17.592C165.296 17.192 164.576 16.648 164.048 15.96C163.52 15.256 163.224 14.472 163.16 13.608H167.216C167.264 14.072 167.48 14.448 167.864 14.736C168.248 15.024 168.72 15.168 169.28 15.168C169.792 15.168 170.184 15.072 170.456 14.88C170.744 14.672 170.888 14.408 170.888 14.088C170.888 13.704 170.688 13.424 170.288 13.248C169.888 13.056 169.24 12.848 168.344 12.624C167.384 12.4 166.584 12.168 165.944 11.928C165.304 11.672 164.752 11.28 164.288 10.752C163.824 10.208 163.592 9.48 163.592 8.568C163.592 7.8 163.8 7.104 164.216 6.48C164.648 5.84 165.272 5.336 166.088 4.968C166.92 4.6 167.904 4.416 169.04 4.416C170.72 4.416 172.04 4.832 173 5.664C173.976 6.496 174.536 7.6 174.68 8.976H170.888C170.824 8.512 170.616 8.144 170.264 7.872C169.928 7.6 169.48 7.464 168.92 7.464C168.44 7.464 168.072 7.56 167.816 7.752C167.56 7.928 167.432 8.176 167.432 8.496C167.432 8.88 167.632 9.168 168.032 9.36C168.448 9.552 169.088 9.744 169.952 9.936C170.944 10.192 171.752 10.448 172.376 10.704C173 10.944 173.544 11.344 174.008 11.904C174.488 12.448 174.736 13.184 174.752 14.112C174.752 14.896 174.528 15.6 174.08 16.224C173.648 16.832 173.016 17.312 172.184 17.664C171.368 18.016 170.416 18.192 169.328 18.192Z" fill="#3FD0D4"/>
</svg>

<svg width="175" height="30" viewBox="0 0 175 19" fill="none" xmlns="http://www.w3.org/2000/svg"><path d="M10.688 9.36c.976.208 1.76.696 2.352 1.464.592.752.888 1.616.888 2.592 0 1.408-.496 2.528-1.488 3.36-.976.816-2.344 1.224-4.104 1.224H.488V1.152h7.584c1.712 0 3.048.392 4.008 1.176.976.784 1.464 1.848 1.464 3.192 0 .992-.264 1.816-.792 2.472-.512.656-1.2 1.112-2.064 1.368zM4.592 7.968H7.28c.672 0 1.184-.144 1.536-.432.368-.304.552-.744.552-1.32 0-.576-.184-1.016-.552-1.32-.352-.304-.864-.456-1.536-.456H4.592v3.528zm3.024 6.72c.688 0 1.216-.152 1.584-.456.384-.32.576-.776.576-1.368 0-.592-.2-1.056-.6-1.392-.384-.336-.92-.504-1.608-.504H4.592v3.72h3.024zm12.676-3.408c0-1.376.256-2.584.768-3.624.528-1.04 1.24-1.84 2.136-2.4.896-.56 1.896-.84 3-.84.944 0 1.768.192 2.472.576.72.384 1.272.888 1.656 1.512V4.608h4.104V18h-4.104v-1.896c-.4.624-.96 1.128-1.68 1.512-.704.384-1.528.576-2.472.576-1.088 0-2.08-.28-2.976-.84-.896-.576-1.608-1.384-2.136-2.424-.512-1.056-.768-2.272-.768-3.648zm10.032.024c0-1.024-.288-1.832-.864-2.424a2.73 2.73 0 00-2.064-.888c-.816 0-1.512.296-2.088.888-.56.576-.84 1.376-.84 2.4s.28 1.84.84 2.448c.576.592 1.272.888 2.088.888a2.73 2.73 0 002.064-.888c.576-.592.864-1.4.864-2.424zm11.057 0c0-1.392.28-2.608.84-3.648a6.017 6.017 0 012.376-2.4c1.024-.56 2.192-.84 3.504-.84 1.68 0 3.08.44 4.2 1.32 1.136.88 1.88 2.12 2.232 3.72h-4.368c-.368-1.024-1.08-1.536-2.136-1.536-.752 0-1.352.296-1.8.888-.448.576-.672 1.408-.672 2.496s.224 1.928.672 2.52c.448.576 1.048.864 1.8.864 1.056 0 1.768-.512 2.136-1.536h4.368c-.352 1.568-1.096 2.8-2.232 3.696-1.136.896-2.536 1.344-4.2 1.344-1.312 0-2.48-.28-3.504-.84a6.017 6.017 0 01-2.376-2.4c-.56-1.04-.84-2.256-.84-3.648zM69.713 18l-4.08-5.616V18h-4.104V.24h4.104v9.816l4.056-5.448h5.064l-5.568 6.72L74.8 18h-5.088z" fill="#222"/><path d="M89.757 18l-3.504-6.36h-.984V18h-4.104V1.152h6.888c1.328 0 2.456.232 3.384.696.944.464 1.648 1.104 2.112 1.92.464.8.696 1.696.696 2.688 0 1.12-.32 2.12-.96 3-.624.88-1.552 1.504-2.784 1.872L94.389 18h-4.632zm-4.488-9.264h2.544c.752 0 1.312-.184 1.68-.552.384-.368.576-.888.576-1.56 0-.64-.192-1.144-.576-1.512-.368-.368-.928-.552-1.68-.552h-2.544v4.176zm22.448 9.456c-1.312 0-2.496-.28-3.552-.84a6.253 6.253 0 01-2.472-2.4c-.592-1.04-.888-2.256-.888-3.648 0-1.376.304-2.584.912-3.624a6.166 6.166 0 012.496-2.424c1.056-.56 2.24-.84 3.552-.84 1.312 0 2.496.28 3.552.84a6.166 6.166 0 012.496 2.424c.608 1.04.912 2.248.912 3.624s-.312 2.592-.936 3.648a6.172 6.172 0 01-2.52 2.4c-1.056.56-2.24.84-3.552.84zm0-3.552c.784 0 1.448-.288 1.992-.864.56-.576.84-1.4.84-2.472s-.272-1.896-.816-2.472a2.561 2.561 0 00-1.968-.864c-.8 0-1.464.288-1.992.864-.528.56-.792 1.384-.792 2.472 0 1.072.256 1.896.768 2.472a2.561 2.561 0 001.968.864zm13.169-3.36c0-1.376.256-2.584.768-3.624.528-1.04 1.24-1.84 2.136-2.4.896-.56 1.896-.84 3-.84.944 0 1.768.192 2.472.576.72.384 1.272.888 1.656 1.512V4.608h4.104V18h-4.104v-1.896c-.4.624-.96 1.128-1.68 1.512-.704.384-1.528.576-2.472.576-1.088 0-2.08-.28-2.976-.84-.896-.576-1.608-1.384-2.136-2.424-.512-1.056-.768-2.272-.768-3.648zm10.032.024c0-1.024-.288-1.832-.864-2.424a2.73 2.73 0 00-2.064-.888c-.816 0-1.512.296-2.088.888-.56.576-.84 1.376-.84 2.4s.28 1.84.84 2.448c.576.592 1.272.888 2.088.888a2.73 2.73 0 002.064-.888c.576-.592.864-1.4.864-2.424zm11.057-.024c0-1.376.256-2.584.768-3.624.528-1.04 1.24-1.84 2.136-2.4.896-.56 1.896-.84 3-.84.88 0 1.68.184 2.4.552.736.368 1.312.864 1.728 1.488V.24h4.104V18h-4.104v-1.92c-.384.64-.936 1.152-1.656 1.536-.704.384-1.528.576-2.472.576-1.104 0-2.104-.28-3-.84-.896-.576-1.608-1.384-2.136-2.424-.512-1.056-.768-2.272-.768-3.648zm10.032.024c0-1.024-.288-1.832-.864-2.424a2.73 2.73 0 00-2.064-.888c-.816 0-1.512.296-2.088.888-.56.576-.84 1.376-.84 2.4s.28 1.84.84 2.448c.576.592 1.272.888 2.088.888a2.73 2.73 0 002.064-.888c.576-.592.864-1.4.864-2.424zm17.321 6.888c-1.168 0-2.208-.2-3.12-.6-.912-.4-1.632-.944-2.16-1.632a4.386 4.386 0 01-.888-2.352h4.056c.048.464.264.84.648 1.128.384.288.856.432 1.416.432.512 0 .904-.096 1.176-.288.288-.208.432-.472.432-.792 0-.384-.2-.664-.6-.84-.4-.192-1.048-.4-1.944-.624-.96-.224-1.76-.456-2.4-.696a4.309 4.309 0 01-1.656-1.176c-.464-.544-.696-1.272-.696-2.184 0-.768.208-1.464.624-2.088.432-.64 1.056-1.144 1.872-1.512.832-.368 1.816-.552 2.952-.552 1.68 0 3 .416 3.96 1.248.976.832 1.536 1.936 1.68 3.312h-3.792a1.617 1.617 0 00-.624-1.104c-.336-.272-.784-.408-1.344-.408-.48 0-.848.096-1.104.288a.851.851 0 00-.384.744c0 .384.2.672.6.864.416.192 1.056.384 1.92.576.992.256 1.8.512 2.424.768.624.24 1.168.64 1.632 1.2.48.544.728 1.28.744 2.208 0 .784-.224 1.488-.672 2.112-.432.608-1.064 1.088-1.896 1.44-.816.352-1.768.528-2.856.528z" fill="#3FD0D4"/></svg>
